X:1
T:From Egypt Lately Come
T:From Egypt Lately Come
T:Samuel Sebastian Wesley, 1864
T:Thomas Kelly (1769-1855)
T:Public Domain Courtesy of the Cyber Hymnal™
C:Samuel Sebastian Wesley, 1864
Z:Public Domain
Z:Courtesy of the Cyber Hymnal™
%%score 1 ( 2 3 )
L:1/8
Q:1/4=113
M:none
K:F
V:1 treble 
V:2 bass 
V:3 bass 
V:1
 [FA]2 | [FB]2 [FA]2 [FG]2 [FG]2 | [EG]4 [CF]4 | [DF]2 [Fd]2 [Fc]2 [EB]2 | [FA]6 [Fc]2 | %5
w: 1.~From|E- gypt late- ly|come, Where|death and dark- ness|reign, We|
w: 2.~To|Ca- naan’s sac- red|bound We|haste with songs of|joy! Where|
w: 3.~Our|toils and con- flicts|cease On|Ca- naan’s hap- py|shore; We|
w: 4.~But|hark! those dis- tant|sounds That|strike our list- ening|ears, They|
w: 5.~There,|in ce- les- tial|strains, En-|rap- tured my- riads|sing; There|
w: 6.~We|soon shall join the|throng, Their|plea- sures we shall|share; And|
w: 7.~How|sweet the pros- pect|is! It|cheers the pil- grim’s|heart; We’re|
 [EB]2 [FA]2 [Fd]2 [Fc]2 | [Fc]2 [EB]2 [CA]2 [^CG]2 | [DF]2 [DG]2 [CF]2 [CE]2 | [CF]8 || %9
w: seek our new, our|bet- ter home, Where|we our rest shall|gain.|
w: peace and li- ber-|ty are found, And|sweets that ne- ver|cloy.|
w: there shall dwell in|end- less peace, And|ne- ver hun- ger|more.|
w: come from Ca- naan’s|hap- py bounds, Where|God our king ap-|pears.|
w: love in ev- ery|bo- som reigns, For|God Him- self is|king.|
w: sing the ev- er-|last- ing song, With|all the ran- somed|there.|
w: jour- neying through the|wil- der- ness, But|soon shall gain our|rest.|
"^Refrain" [CF]3 [CF] [CF]2 [CF]2 | [Ec]3 [Ec] [Ec]2 [Ec]2 | [Ff]4 [Fd]4 | [Fd]4 [Fc]4 | %13
w: ||||
w: ||||
w: ||||
w: Hal- le- lu- jah!|Hal- le- lu- jah!|Hal- le-|lu- jah!|
w: ||||
w: ||||
w: ||||
 [EA]6 [^CG]2 | [DF]4 [DG]4 | [CF]4 [CE]4 | [CF]6 |] %17
w: ||||
w: ||||
w: ||||
w: We are|on our|way to|God.|
w: ||||
w: ||||
w: ||||
V:2
 [F,C]2 | [F,D]2 [F,C]2 [D,=B,]2 [D,B,]2 | [C,C]4 [A,,C]4 | [B,,B,]2 [B,,B,]2 [C,A,]2 [C,C]2 | %4
 [F,C]6 [A,C]2 | [G,C]2 [F,C]2 B,2 [A,C]2 | [G,D]2 [C,C]2 [F,C]2 [E,A,]2 | %7
 [D,A,]2 [B,,B,]2 [C,A,]2 [C,G,]2 | [F,A,]8 || [F,A,]3 [F,A,] [F,A,]2 [F,A,]2 | %10
 [C,G,]3 [C,G,] [C,G,]2 [C,C]2 | [B,,D]4 [B,,B,]4 | [F,B,]4 [F,,A,]4 | [A,,^C]6 [A,,A,]2 | %14
 [D,A,]4 [B,,B,]4 | [C,A,]4 [C,G,]4 | [F,A,]6 |] %17
V:3
 x2 | x8 | x8 | x8 | x8 | x4 B,2 x2 | x8 | x8 | x8 || x8 | x8 | x8 | x8 | x8 | x8 | x8 | x6 |] %17

